Icons/rename_me_voice_search.svg

<svg viewBox="0 0 48 48" xmlns:xlink="http://www.w3.org/1999/xlink">
 <defs>
  <linearGradient id="0">
   <stop stop-opacity="0"/>
   <stop offset="1"/>
  </linearGradient>
  <linearGradient xlink:href="#0" id="1" gradientUnits="userSpaceOnUse" gradientTransform="translate(4e-7,-48)" y1="47" x2="0" y2="1"/>
  <clipPath id="2">
   <g transform="translate(0,-1004.3622)">
    <rect rx="4" y="1005.36" x="1" height="46" width="46" fill="#1890d0"/>
   </g>
  </clipPath>
  <clipPath id="3">
   <g transform="translate(0,-1004.3622)">
    <rect rx="4" y="1005.36" x="1" height="46" width="46" fill="#1890d0"/>
   </g>
  </clipPath>
 </defs>
 <g>
  <g transform="translate(0,-1004.3622)">
   <path d="m 5,1006.3622 c -2.216,0 -4,1.784 -4,4 l 0,37.25 c 0,2.216 1.784,4 4,4 l 38,0 c 2.216,0 4,-1.784 4,-4 l 0,-37.25 c 0,-2.216 -1.784,-4 -4,-4 l -38,0 z m -4,41.5 0,0.5 c 0,2.216 1.784,4 4,4 l 38,0 c 2.216,0 4,-1.784 4,-4 l 0,-0.5 c 0,2.216 -1.784,4 -4,4 l -38,0 c -2.216,0 -4,-1.784 -4,-4 z" opacity="0.02"/>
   <path d="m 1,1047.6122 0,0.25 c 0,2.216 1.784,4 4,4 l 38,0 c 2.216,0 4,-1.784 4,-4 l 0,-0.25 c 0,2.216 -1.784,4 -4,4 l -38,0 c -2.216,0 -4,-1.784 -4,-4 z" opacity="0.05"/>
   <rect width="46" height="46" x="1" y="1005.61" rx="4" opacity="0.1"/>
  </g>
 </g>
 <g>
  <g transform="translate(0,-1004.3622)">
   <rect rx="4" y="1005.36" x="1" height="46" width="46" fill="#d64e47"/>
  </g>
 </g>
 <g>
  <rect transform="scale(1,-1)" width="46" height="46" x="1" y="-46.998" rx="4" opacity="0.1" fill="url(#1)"/>
 </g>
 <g>
  <g clip-path="url(#2)">
   <g opacity="0.1">
    <g>
     <path d="M 23.960938 12 L 24.039062 12 C 26.777344 12 29 14.222656 29 16.960938 L 29 24.039062 C 29 26.78125 26.777344 29 24.039062 29 L 23.960938 29 C 21.21875 29 19 26.78125 19 24.039062 L 19 16.960938 C 19 14.222656 21.21875 12 23.960938 12 Z M 23.960938 12 " fill-opacity="0.902"/>
     <path d="M 16 23 C 16 23 16.144531 31.523438 23 31.5 L 23 34 L 20 34 L 20 36 L 28 36 L 28 34 L 25 34 L 25 31.5 C 31.855469 31.5625 32 23 32 23 L 30.351562 23 C 30.351562 23 30.390625 30 24 30 C 17.609375 30 17.648438 23 17.648438 23 Z M 16 23 " fill-opacity="0.902"/>
    </g>
   </g>
  </g>
 </g>
 <g>
  <g clip-path="url(#3)">
   <g transform="translate(0,-1)">
    <g>
     <path d="M 23.960938 12 L 24.039062 12 C 26.777344 12 29 14.222656 29 16.960938 L 29 24.039062 C 29 26.78125 26.777344 29 24.039062 29 L 23.960938 29 C 21.21875 29 19 26.78125 19 24.039062 L 19 16.960938 C 19 14.222656 21.21875 12 23.960938 12 Z M 23.960938 12 " fill="#f9f9f9" fill-opacity="0.902"/>
     <path d="M 16 23 C 16 23 16.144531 31.523438 23 31.5 L 23 34 L 20 34 L 20 36 L 28 36 L 28 34 L 25 34 L 25 31.5 C 31.855469 31.5625 32 23 32 23 L 30.351562 23 C 30.351562 23 30.390625 30 24 30 C 17.609375 30 17.648438 23 17.648438 23 Z M 16 23 " fill="#f9f9f9" fill-opacity="0.902"/>
    </g>
   </g>
  </g>
 </g>
 <g>
  <g transform="translate(0,-1004.3622)">
   <path d="m 1,1043.3622 0,4 c 0,2.216 1.784,4 4,4 l 38,0 c 2.216,0 4,-1.784 4,-4 l 0,-4 c 0,2.216 -1.784,4 -4,4 l -38,0 c -2.216,0 -4,-1.784 -4,-4 z" opacity="0.1"/>
  </g>
 </g>
</svg>

<svg viewBox="0 0 48 48"><defs><linearGradient id="linearGradient3764" x1="1" x2="47" gradientUnits="userSpaceOnUse" gradientTransform="translate(-48.000001,0.00221467)"><stop stop-color="#d23d36" stop-opacity="1"/><stop offset="1" stop-color="#d64e47" stop-opacity="1"/></linearGradient><clipPath id="clipPath-557113868"><g transform="translate(0,-1004.3622)"><rect rx="4" y="1005.36" x="1" height="46" width="46" fill="#1890d0"/></g></clipPath><clipPath id="clipPath-570259833"><g transform="translate(0,-1004.3622)"><rect rx="4" y="1005.36" x="1" height="46" width="46" fill="#1890d0"/></g></clipPath></defs><g><path d="m 1 43 l 0 0.25 c 0 2.216 1.784 4 4 4 l 38 0 c 2.216 0 4 -1.784 4 -4 l 0 -0.25 c 0 2.216 -1.784 4 -4 4 l -38 0 c -2.216 0 -4 -1.784 -4 -4 z m 0 0.5 l 0 0.5 c 0 2.216 1.784 4 4 4 l 38 0 c 2.216 0 4 -1.784 4 -4 l 0 -0.5 c 0 2.216 -1.784 4 -4 4 l -38 0 c -2.216 0 -4 -1.784 -4 -4 z" opacity="0.02"/><path d="m 1 43.25 l 0 0.25 c 0 2.216 1.784 4 4 4 l 38 0 c 2.216 0 4 -1.784 4 -4 l 0 -0.25 c 0 2.216 -1.784 4 -4 4 l -38 0 c -2.216 0 -4 -1.784 -4 -4 z" opacity="0.05"/><path d="m 1 43 l 0 0.25 c 0 2.216 1.784 4 4 4 l 38 0 c 2.216 0 4 -1.784 4 -4 l 0 -0.25 c 0 2.216 -1.784 4 -4 4 l -38 0 c -2.216 0 -4 -1.784 -4 -4 z" opacity="0.1"/></g><g><rect width="46" height="46" x="-47" y="1" rx="4" transform="matrix(0,-1,1,0,0,0)" fill="url(#linearGradient3764)" fill-opacity="1"/></g><g><g clip-path="url(#clipPath-557113868)"><g opacity="0.1"><!-- color: #d64e47 --><g><path d="m 23.961 12 l 0.078 0 c 2.738 0 4.961 2.223 4.961 4.961 l 0 7.078 c 0 2.742 -2.223 4.961 -4.961 4.961 l -0.078 0 c -2.742 0 -4.961 -2.219 -4.961 -4.961 l 0 -7.078 c 0 -2.738 2.219 -4.961 4.961 -4.961 m 0 0" fill-opacity="0.902" fill="#000"/><path d="m 16 23 c 0 0 0.145 8.523 7 8.5 l 0 2.5 l -3 0 l 0 2 l 8 0 l 0 -2 l -3 0 l 0 -2.5 c 6.855 0.063 7 -8.5 7 -8.5 l -1.648 0 c 0 0 0.039 7 -6.352 7 c -6.391 0 -6.352 -7 -6.352 -7 m -1.648 0" fill-opacity="0.902" fill="#000"/></g></g></g></g><g><g clip-path="url(#clipPath-570259833)"><g transform="translate(0,-1)"><!-- color: #d64e47 --><g><path d="m 23.961 12 l 0.078 0 c 2.738 0 4.961 2.223 4.961 4.961 l 0 7.078 c 0 2.742 -2.223 4.961 -4.961 4.961 l -0.078 0 c -2.742 0 -4.961 -2.219 -4.961 -4.961 l 0 -7.078 c 0 -2.738 2.219 -4.961 4.961 -4.961 m 0 0" fill="#f9f9f9" fill-opacity="0.902"/><path d="m 16 23 c 0 0 0.145 8.523 7 8.5 l 0 2.5 l -3 0 l 0 2 l 8 0 l 0 -2 l -3 0 l 0 -2.5 c 6.855 0.063 7 -8.5 7 -8.5 l -1.648 0 c 0 0 0.039 7 -6.352 7 c -6.391 0 -6.352 -7 -6.352 -7 m -1.648 0" fill="#f9f9f9" fill-opacity="0.902"/></g></g></g></g><g><g transform="translate(0,-1004.3622)"><path d="m 1 1043.36 0 4 c 0 2.216 1.784 4 4 4 l 38 0 c 2.216 0 4 -1.784 4 -4 l 0 -4 c 0 2.216 -1.784 4 -4 4 l -38 0 c -2.216 0 -4 -1.784 -4 -4 z" opacity="0.1"/></g></g></svg>
